X:1
T:Tango
T:Tango
T:Isaac Albéniz (1860 - 1909)
T:España, Op. 165, No. 2
C:Isaac Albéniz
%%score ( 1 2 )
L:1/8
Q:1/4=70
M:2/4
K:A
V:1 treble-8 nm="Classical Guitar" snm="Guit."
V:2 treble-8 
V:1
"^Andantino"!mp! z2 [Ace]2 | z2 [Ace]2 | (3ccc Pdc |"^V" [Ace]3 [ca]/[db]/ | %4
 [ec']>[eg]"^V"{/b} [ca][^Bf] | [Gd]3 [Bd]/[ce]/ |"^VII" [df]>[eg] [gb][fa] | %7
 [fa][eg]- [eg][gb]/[df]/ | [fa]>[ce] [eg][Bd] |"^V" [^Bf][ce]- [ce][ca] |"^II" (3agf gf | %11
 [Aca][Ac] (3c^Bc | (3dfa gf | [Aca]3 [^dc'] | (3c'bg af | [eb][Bg]"^IV" (3efg | (3bag"^II" gf | %17
 [Ge]2!<(! z2!<)! |!mf! (3ccc Pdc |"^V" [Ace]3 [ca]/[db]/ | [ec']>[eg]"^V"{/b} [ca][^Bf] | %21
 [Gd]2 z"_cresc." [Bd]/[c^e]/ | [cf]>"^IV"[^eg]"^VII" [dgb][Bda] |"^IV" ag z ^e/^^f/ | %24
"^IV" g>a!f!"^VII" c'b |"^IV" [^Bfg][ca] z a |"^IX" (3gbc' bf |"^IV" a3 a |"^IX" (3gbc' bf | %29
"^IV" a3 a | (3[Acf]ga"^VI" [cf][Ac] |"^IV" [c^e]2 e[ce] |"^IV" (3^def ed |!>(! [c^eg]3 e!>)! | %34
!p!"^IV" (3fg^b P^ag |"^I" [Gc^e]2 [Gce]2 | [Gc^e]2 [^Bf]2 |!<(!"^IV" (3[c^e]f^^f (3g{/b}^ag!<)! | %38
!mf!"^IV" (3fg^b P^ag | ^e2"^V" (3=eaf | (3eda"^IV" ^Bg |!>(! c2"^II" (3ced!>)! | %42
!p! (3cBf!<(! B^B!<)! |!mf! (3ccc Pdc |"^V" [Ace]3 [ca]/[db]/ | [ec']>[eg]"^V"{/b} [ca][^Bf] | %46
 [Gd]3 [Bd]/[ce]/ |"^VII" [df]>[eg] [gb][fa] | [fa][eg]- [eg][gb]/[df]/ | [fa]>[ce] [eg][Bd] | %50
"^V" [^Bf] [ce]2 a |"^III" a2- (3aab |"^VIII" (3d'=c'=g"^III" (3Ped=c | =f2 (3dfg | %54
"^V" (3[ceb]a^B (3c{/e}dc |"^II" (3cde dc | (3cfc B !fermata!z | (3z!>(! [Fd][Ec] [Ec][DB]!>)! | %58
!p! z2 [Ace]2 | z2 [Ace]2 | [EA]4 |"^V" [cea]4 |] %62
V:2
 A,>E- EE, | A,>E- EE, | [A,EA]2 EE, | A,2{/^D} EE, | A,2 E^D | B,2{/^D} EE, | B,2 EE, | %7
 B,2{/^D} EE, | B,2 E,2 | A,2{/^D} E2 | [F,Ac]2 [=CA^d]2 | F,>C F2 | [F,A]2 [DAd]2 | (3F,^B,C FA | %14
 (3:2:2[Ge]2 [^Ed] [F^d][Ad] | GE [CG]2 | [A,F=c]2 [B,A^d]2 | (3E,^DE{/G} FE | [A,EA]2 EE, | %19
 A,2{/^D} EE, | A,2 E^D | B,2{/^E} FD/B,/ | A,>C ^EF | [CB^e]2{/^B,} CB/E/ | [CB^e]2 [^Eg]2 | %25
 F>C F2 | [Fdf]2 GD | (3[Fc]^B,C{/E} DC | [Fdf]2 GD | (3[Fc]^B,C{/E} DC | (3:2:2^D2 F D2 | %31
 (3C^EF{/^B} ^AG | (3:2:2[G,^B]2 ^D [G,FB]2 | C2{/^^F,} G,G | (3:2:2[G,^B]2 G F^E | %35
 (3C^A,^B, (3A,G,C | (3C^B,^A, ^DG, | (3:2:2C2 E (3^EFE | (3:2:2[G,^B]2 G F[^DB] | %39
 [CGc]2 [A,=Gc]2 | (3:2:2[DA]2 F [G,F]2 | [C^EG]2 [F,=EA]2 | [B,D]2 [E,DG]2 | [A,EA]2 EE, | %44
 A,2{/^D} EE, | A,2 E^D | B,2{/^D} EE, | B,2 EE, | B,2{/^D} EE, | B,2 E,2 | A,2{/G} Ac/A/ | %51
 (3[=F=c]de (3Fcd | [=Ce=g]2 [C_B]2 | (3[D^G]AB (3=FAF | A,2{/^D} (3E=FE | [F,E^A]2 [F,EA]2 | %56
 [B,A]2 [B,D] !fermata!z | E,4 | A,>E- EE, | A,>E- EE, | A,4 | A,4 |] %62

